src/Pure/16/symbolic/actions/window-pop-out-symbolic.svg

<svg width="16" height="16" version="1.1" xmlns="http://www.w3.org/2000/svg">
 <path d="m4 4c-1.108 0-2 0.892-2 2v6c0 1.108 0.892 2 2 2h7c1.108 0 2-0.892 2-2v-6c0-1.108-0.892-2-2-2h-7zm0 2h7c0.554 0 1 0.446 1 1v5c0 0.554-0.446 1-1 1h-7c-0.554 0-1-0.446-1-1v-5c0-0.554 0.446-1 1-1z" fill="#363636"/>
 <path d="m6 2c-0.74107 0-1.379 0.4042-1.7246 1h7.7246c1.108 0 2 0.892 2 2v5 1.7246c0.5958-0.34556 1-0.98354 1-1.7246v-5c0-1.662-1.338-3-3-3h-6z" fill="#363636"/>
</svg>

<?xml version="1.0" encoding="UTF-8" standalone="no"?>
<svg
   width="16"
   height="16"
   version="1.1"
   id="svg2"
   sodipodi:docname="window-pop-out-symbolic.svg"
   inkscape:version="1.4.2 (ebf0e940d0, 2025-05-08)"
   xmlns:inkscape="http://www.inkscape.org/namespaces/inkscape"
   xmlns:sodipodi="http://sodipodi.sourceforge.net/DTD/sodipodi-0.dtd"
   xmlns="http://www.w3.org/2000/svg"
   xmlns:svg="http://www.w3.org/2000/svg">
  <defs
     id="defs2">
    <style
       id="current-color-scheme"
       type="text/css">
        .ColorScheme-Text { color:#363636; }
     </style>
  </defs>
  <sodipodi:namedview
     id="namedview2"
     pagecolor="#ffffff"
     bordercolor="#000000"
     borderopacity="0.25"
     inkscape:showpageshadow="2"
     inkscape:pageopacity="0.0"
     inkscape:pagecheckerboard="0"
     inkscape:deskcolor="#d1d1d1"
     inkscape:zoom="49.6875"
     inkscape:cx="8"
     inkscape:cy="8"
     inkscape:window-width="1920"
     inkscape:window-height="1010"
     inkscape:window-x="0"
     inkscape:window-y="0"
     inkscape:window-maximized="1"
     inkscape:current-layer="svg2" />
  <path
     id="path1"
     style="fill:currentColor;fill-opacity:1"
     class="ColorScheme-Text"
     d="M 6 2 C 5.25893 2 4.6209906 2.4042 4.2753906 3 L 12 3 C 13.108 3 14 3.892 14 5 L 14 10 L 14 11.724609 C 14.5958 11.379049 15 10.74106 15 10 L 15 5 C 15 3.338 13.662 2 12 2 L 6 2 z M 4 4 C 2.892 4 2 4.892 2 6 L 2 12 C 2 13.108 2.892 14 4 14 L 11 14 C 12.108 14 13 13.108 13 12 L 13 6 C 13 4.892 12.108 4 11 4 L 4 4 z M 4 6 L 11 6 C 11.554 6 12 6.446 12 7 L 12 12 C 12 12.554 11.554 13 11 13 L 4 13 C 3.446 13 3 12.554 3 12 L 3 7 C 3 6.446 3.446 6 4 6 z " />
</svg>
